X:52
T:Hard is my fate
T:Nach truagh mo ch\`as
R:Slow Air
S:Simon Fraser Collection
N:No.125
O:Scottish
M:C
L:1/8
Q:1/4=120
K:C
c>d|e2G2G2e2|eddc c2 c>d|e2A2A2d2|cBAG G2 c>d|e2G2G2e2|
eddc c2 c>d|e3A d3B|c6:|
|:E>F|G3E c3d|ecGE F3E|D3E F3G|AGGF E2 ze/f/|g3e c'3b|
agfe f3g|a3g g3B|c6:|

